X:1
T:Title
%%score ( 1 2 3 ) { ( 4 7 8 ) | ( 5 6 ) }
L:1/8
Q:1/4=110
M:4/4
K:C
V:1 treble nm="Grand Piano, Soprano"
V:2 treble 
V:3 treble 
V:4 bass nm="Choir Pad, Es Ist Vollbracht"
V:7 bass 
V:8 bass 
V:5 bass 
V:6 bass 
V:1
 z4 z2 B2 | [CA]2 [CE]2 [B,D]2 [B,E]2 | [A,C]4 z2 [Ec]2 | [EB]2 [Ec]2 [CA]2 [Cc]2 | %4
 [FB]2 [FA]2 [E^G]4 | z2 [EB]2 [Ec]2 [DA]2 | [DB]2 [CA]2 [B,^F]2 [B,G]2 | [B,^F]4 [B,E]4 | %8
 z2 [B,^G]2 [EA]2 [DB]2 | [Ec]2 [Fd]2 [DB]2 [Ec]2 | c2 B2 [Ec]4 | z2 [DG]2 [CE]2 C2 | %12
 [CG]2 [DG]2 [EA]2 [Ec]2 | [FB]2 [FA]2 [E^G]4 | z2 [EB]2 [Ec]2 [Gd]2 | [Ge]2 [FA]2 [Ac]2 [^GB]2 | %16
 A8 |] %17
V:2
 z2 [EA]2 c2 z D | x8 | x8 | x8 | x8 | x8 | x8 | x8 | x8 | x8 | D4 z4 | x8 | x8 | x8 | x8 | x8 | %16
 x8 |] %17
V:3
 z4 E4 | x8 | x8 | x8 | x8 | x8 | x8 | x8 | x8 | x8 | x8 | x8 | x8 | x8 | x8 | x8 | x8 |] %17
V:4
 z2 C2 A,2 ^G,2 | A,2 A,2 A,2 ^G,2 | E,4 z2 A,2 | ^G,2 A,2 A,2 A,2 | .D4 B,4 | z2 ^G,2 A,2 ^F,2 | %6
 G,2 E,2 _E,2 z2 | z2 _E,2 ^G,4 | z2 E,2 E,2 ^G,2 | A,2 A,2 G,2 G,2 | z4 G,4 | z2 G,2 G,2 A,2 | %12
 G,2 G,2[K:treble] C2 C2 | .D4 B,4 | z2 ^G,2 A,2 B,2 | C2 C2 .E4 | ^C8 |] %17
V:5
 z2 A,2 z2 E,2 | A,,2 A,,2 F,2 E,2 | A,,4 z4 | E,2 C,2 F,2 E,2 | D,2 z C E,4 | z2 E,2 C,2 D,2 | %6
 G,,2 A,,2 B,,2 z2 | z4 E,,4 | z4 C,2 B,,2 | A,,2 F,2 F,2 E,F, | G,4 C,4 | z2 B,,2 C,2 F,2 | %12
 E,2 B,,2 C,2 A,,2 | D,2 z C E,4 | z2 E,2 z2 ^G,2 | C,2 F,2 E,2 z D | A,,8 |] %17
V:6
 x8 | x8 | x8 | x8 | z2 D,2 z4 | x8 | x8 | x8 | x8 | x8 | x8 | x8 | x8 | z2 D,2 z4 | x8 | %15
 z4 z2 E,,2 | x8 |] %17
V:7
 x8 | x8 | x8 | x8 | x8 | x8 | z4 z2 =E,2- | E,2 z2 z4 | x8 | x8 | x8 | x8 | x4[K:treble] x4 | x8 | %14
 x8 | x8 | x8 |] %17
V:8
 x8 | x8 | x8 | x8 | x8 | x8 | x8 | B,,4 z4 | x8 | x8 | x8 | x8 | x4[K:treble] x4 | x8 | x8 | x8 | %16
 x8 |] %17

